frontend/ui/play/assets/images/mpchess/wP.svg

<?xml version="1.0" encoding="UTF-8"?>
<svg xmlns="http://www.w3.org/2000/svg" xmlns:xlink="http://www.w3.org/1999/xlink" width="150px" height="150px" viewBox="0 0 150 150" version="1.1">
<g id="surface1">
<path style="fill-rule:nonzero;fill:rgb(100%,100%,100%);fill-opacity:1;stroke-width:1.511811;stroke-linecap:butt;stroke-linejoin:miter;stroke:rgb(0%,0%,0%);stroke-opacity:1;stroke-miterlimit:4;" d="M 18.874959 10.23374 C 16.700071 10.23374 14.93741 11.997373 14.93741 14.172261 C 14.939354 15.269914 15.399221 16.31701 16.207148 17.06077 L 13.972953 18.020365 L 13.972953 20.349839 L 16.616459 20.342061 C 15.060884 30.392048 10.609022 27.302287 10.609022 32.869302 L 27.266315 32.869302 C 27.266315 27.222564 22.705563 30.637051 21.14221 20.339144 L 23.781826 20.299283 L 23.781826 17.984392 L 21.571938 17.039381 C 22.363336 16.295621 22.813481 15.258247 22.814453 14.172261 C 22.814453 11.996401 21.049848 10.23374 18.874959 10.23374 Z M 18.874959 10.23374 " transform="matrix(4.017807,0,0,4.017807,0,0)"/>
</g>
</svg>

<svg xmlns="http://www.w3.org/2000/svg" width="10mm" height="10mm" viewBox="0 0 10 10"><g style="fill:#fff;fill-opacity:1"><g style="fill:#fff;fill-opacity:1;stroke-width:.09651081;stroke-miterlimit:4;stroke-dasharray:none"><path d="M18.875 10.234a3.938 3.938 0 0 0-3.938 3.938 3.938 3.938 0 0 0 1.27 2.889l-2.234.959v2.33l2.643-.008c-1.555 10.05-6.007 6.96-6.007 12.527h16.657c0-5.646-4.56-2.232-6.124-12.53l2.64-.04v-2.315l-2.21-.945a3.938 3.938 0 0 0 1.242-2.867 3.938 3.938 0 0 0-3.939-3.938z" style="fill:#fff;fill-opacity:1;stroke:#000;stroke-width:1.51181102;stroke-linecap:butt;stroke-linejoin:miter;stroke-miterlimit:4;stroke-dasharray:none;stroke-opacity:1" transform="scale(.26458)"/></g></g></svg>
